-----BEGIN PGP PUBLIC KEY BLOCK-----

mQINBGocNAgBEAC4qJgh0BjddgEh1ew6j3jdP4XMD78zfYJLK0rydShYsPe4TmWq
0GY4XjH6SHT7H7Gn61KYA/hBepgpvc8RJZIS3K2tfzipzxJRu+njvP9yb4+yL+3g
KIkWQHtE1417w5uypq9/dkPk+/8bFjdBN2GcPjzLw4ArAw7Ac2MqcUpwtA1/9IF3
ZHpZGwMzBPe/qalroyeBIqJJW77yA1/OS7mYRKSBOgQKkwJUQWqvwA/OWAZ5IEoc
ZdNvyKEYDkahrmmw2U5O+vDyOvtoHUhjbZkhlqL/Ip1wjiYMixgmgNWx9pM9+5WU
wtEKY2RdwjUnoCuPXUnzfaPd8OKEX98TWYYwwCzFccONTkv2z9KB3jTuhQRNPrZ6
JHJ2SsJ2uPrWAiNxdlljxpMM1bR4rMcJIr6P0uwU/UDn0xPROQqmxjOpyTxcXsLT
8DKV2aAPNDYJ+TsIp4k/b6QbhnMA6IfMCAUJ+ybc7D9Qs6gWPCNUIP6NtObVinp1
KyH5RoavOt1Q5jFYyTY9BkxRVAhWzcs41XTEzvJLqQnTxzUjz3WlnJXPtz4EYF8V
vmqBxnQE6dXTTMe0LP7sNSp1JbIn2suvGMiC0c8rnpyV8ap1uEz0La5rIPhV3MZ1
B/CexrfHCmnQCHTvJ+ZS2DI8aBI3jNv2TXheueeZJOJnYAHEDKcl6ErCewARAQAB
tD1LdWJlVXNlciBSZWxlYXNlIFNpZ25pbmcgS2V5IChmb3JrKSA8eWFoeWEubXVo
YW5lZEBnbWFpbC5jb20+iQJuBBMBCABYFiEEHFJo0foL60yWhmCWvd8LseEHWncF
AmocNAgbFIAAAAAABAAObWFudTIsMi41KzEuMTIsMCwzAxsvBAULCQgHAgIiAgYV
CgkICwIEFgIDAQIeBwIXgAAKCRC93wux4QdadwIWEAC0cxydWa7QNLKRewhKmG2D
bqQJCYYd5/bbMWMw0b+42MWKu2gzLdIPIx/OAE7sUf9Mom2rAznwpjwShs6RkayZ
RB2PshsTNn6o5CnmbPT7ANPywDvCYaNrUls4qXPEksaa1jbQUWWVKHFkTemkCho3
+2ic9DPJkftXNtU43eJgOEwaybmKcWecpNf2cAgdFgMYGUEYeH6gZdqqow2r8ITx
KB1EwUEuOyNQQ2RVD589j7bcb94ngo3IEdSEZoRPNdxU9+j0Q1idC8AqRcxDo4GV
Rih7fZ9dyDsXhHW8m8aboj1n08RV7D9uWKr07DqfOruH+H+e3Mqx7/Qobd68JcQ7
cYE7GsVGXBLO+ykiOseeLHPLLSJbT7Te1dUII/TdMaPCyirMhD1WsdYxnfWZX7FN
5nl+GZtHyLLSfNwIyuBpRT5TnyvgzCu7j88tKAwg1JIs8bdBAPkq56/KPz7PPEV9
pmSOWJrETvScICSl5l+i1GzubxEXPbf1I4mZUUMUXjaaEPruaZByvKvVEnDmjHYh
ouVhfpSH7wtrz3LBPHg8UGc3EEq8qTq2esY8d4cygyRJiEybHWnC0XMeTzAdYTWI
RsFxyNAV/5hxxK41/NeT/Muew0OFfghpNqPIeKNR5YaL77sjeMSw5c2CeWNozfCr
NjQlzWSR2A2w+H8XR8EiL7kCDQRqHDQIARAA8SVxW3ty47WCzfEbO3KpflBl7H6C
ejaCFmc93UFWA2E5NkchJ8fkPl1M2/68eeg+WfUqQFZ/Ou4KHRJVJtW5TtuksF+z
0KNJkmpaOCdXXK7PnJ12FrEIZybyc7NhKUk08NJXy1ece/965sdRUDwYAcr+3lOX
MVn5Oc/HPT0qNzxKaiAWwLwNKPq0+oUkKtjwPhqlzuQ8+6TtOkYH0B6O/j4mljln
sSAT5g5qrLXWrC2k2W80cV3lHEz6/pibjrYaBL9fnXi0nPcw57dkAVrdjw1FNqx2
ql3Y4gbFBDoRE4Xi413+BdFgba2e3VPgZATdjHudv/RiCaHUyTmJ3IalCdHhq1g5
hv7AlHpIutX5hGSfvtvgy80JJfuRD8rOuMdef46+zDMraxomCULpzT4It7oEX6DN
SA/dAkO1SWGm8e2Z3OY+65LjugYXzWyqYnXL4dvhYUl9LCc0ghT8f/aMZ4IshN/T
ozTbDXxIJ2eEnpJ7fC4a5iXAg02xN4U49SP4MehBN1AoHrQO7kqq+QDuieqLy9cB
ftQCYA/MAXUlJLiZxCtMU2bXD6Xy6INB8JPNHJimMY5MBBoT4lGo+Mx05rrIhh04
hPzAjpLlo9SaksxqplRAabuDMcneMgkTHo38WHl8VvhCuACFH0LemzFmz57xfi1V
7W9iYkpSebF1cL8AEQEAAYkEiAQYAQgAPBYhBBxSaNH6C+tMloZglr3fC7HhB1p3
BQJqHDQIGxSAAAAAAAQADm1hbnUyLDIuNSsxLjEyLDAsMwIbLgJACRC93wux4Qda
d8F0IAQZAQgAHRYhBPvWlPsIoISoeDvyrhlUiUqjbgnGBQJqHDQIAAoJEBlUiUqj
bgnGIlsP/3+TEgqzAlYXXchFj/2NEmS6FawfACtohIsGQBNrGEsEF/xflwKJrNSJ
EpBxCzTega93TpmNwCgVne8tjXhOOJgomiReakcPgSavrTat994q/uJL8Tp3Sg6l
t/EcgNcgSx0vaezv5Q+stDdN9TOnZgfn2+BzacRkDLQ//EV94g3+LSbLM55Prw2e
uTgYA1Z/+dsTU/QSl6p+ovjKEbBeG7LYDZJg+IVfOequdhw/2K36JS8ECufYevLe
hF5Zw1e6jCOknESSIwmnpQ9uxQxtWuih+PkA0oTsuu9MZPpzSCN0+FLGJwjHeIA3
l1Q64vJzVu0563EuqGr9Y0dZPZ7E27ITVRBILqod4tzD2sh5TQRQE4c6HIDoS177
z4lay5MR+4ba9WQnBsuukm93/HUHanlPJSEg8Kx3qNdDe4F6Oo5qLVsIYDhcadSp
QQzSPFsN3WAg9BUuV/msr+SzHn6JNcybhKRGYtirjdvSgXSPXPwZCAe/i1MOPveD
FUvI6lLaZT+Ko+KLczVDFwpb/STqCg17n3zid7uqRhouTVIc1vBAhd6rTCLXBZdz
lG3XezxhYx5wfNIBtuC+mNvxIQEj0slMUhxflXl01z5iNe0Kjkp4MCjwBTF3lu5a
ZmCZRkNfyJUwtZwgTsYxUMGBZ4UDQ/LqU4aWLTXXUnChj6f9wH5UVKsP+wZLb9sq
3DwLgye/ToZQoseEgrRnfz58VsSQiy26hUvIrB4g0qzUtWD32VUPQPqZeYXqZCFJ
MLwW7OUIXyrj83pw6vB5LZGFmcNmguGXluy1KQSKXL6fUoZtyK8nyO/2q1br0Lxf
KYTbhFL3yXYxnRKF7O25RrPeKjIa35AfgUxGETmEaWj+vgJDRGFfGRDFzocQWY9f
hC9RLchjyzlFqtTajsGlQCp+WalTSGqJX3Q1pYw+5TTrUtWFfcU20Jas5fv1Mj+t
Ku1VRK//GdmFKjqv+QE+rYSpsdaSoXgT80CcWijGCopU5UaTyoGq1vAzxcMb1gBe
AKITdi6O0qhMZ2uyicg8tiGowTTJbW1e9lKVN1KQDWO6CS6Xb8p8+5GiUJSajeVv
13P142vG7OOm8RzI6OBVBLXYhtUN/MkLoup034Evb8pbkBPyY0zGiLc6GeyKgYti
k2WJPuyhjz6DU4mvRDpfGyVF1MX8Saj0qGky6/k4OjT+7IiEJK0ctT+v//iIjKaB
lpSW7eqGzrIXwHIZONjpJtrAFTg87/rmEL2IvTIH2gUyoTahsu8bxGhJzS+KITuq
NPDnFmBzhS4ygIrnwPWSuKAUlbc2fE/L3GWgLgI44iH+6Zmk779rIMy/9PFojSv7
/Kh8ZLTT0ltA2NcvpEa30vnXTfiMmjXlhe7I
=q7eE
-----END PGP PUBLIC KEY BLOCK-----
